src/liquid/components/ld-bg-cells/assets/f-cell.svg

<svg viewBox="0 0 8000 8000" fill="none"
  xmlns="http://www.w3.org/2000/svg">
  <path fill-rule="evenodd" clip-rule="evenodd" d="M8000 0H0v8000h8000V0ZM4199.28 3575.28c-35.88 9.72-35.36 68.76-35.36 68.76l5.48 75.72c.52 59.04 37.04 59.28 37.04 59.28l100.68 18.44c9 1.64 18.36-.88 18.36-.88 26.56-7.2 26.04-66.24 26.04-66.24l-1.24-136.88c-.52-59.04-36.44-49.28-36.44-49.28l-114.56 31.08Zm-166.36 70.04c3.72-13.36-9.12-21.28-23.88-27.36-4.9-2-15.1-6.1-23.49-9.47l-.02-.01h-.01l-.04-.02c-7.2-2.89-13.04-5.24-13.04-5.26-20.72-8.32-27.52-8.84-39.6 3.84-8.16 8.56-32.52 34.4-32.52 34.4-8 8.24-6.12 20.8 17.96 30.88 18.44 7.72 66.32 27.08 66.32 27.08 22.52 8.28 32.92 1.8 35.64-8.68 3.72-14.36 12.68-45.4 12.68-45.4Zm-20.8 473.4c3.72-13.36-9.12-21.28-23.88-27.36-4.9-2-15.11-6.1-23.5-9.47l-.02-.01-.08-.03-.1-.04-.08-.03-.11-.05c-7.04-2.83-12.71-5.11-12.71-5.13-20.72-8.32-27.52-8.84-39.6 3.84-8.16 8.56-32.52 34.4-32.52 34.4-8 8.24-6.12 20.8 17.96 30.88 18.44 7.72 66.32 27.08 66.32 27.08 22.52 8.28 32.92 1.8 35.64-8.68 3.72-14.36 12.68-45.4 12.68-45.4Zm-33.32-303.4c12.6-9.8 25.88-17 35.6-7.12 0 0 22.48 23.24 33.08 33.56 7.76 7.56 8.16 19.84-10.2 35.24 0 0-40.6 31.92-56.44 44.08-20.72 15.88-32.56 11.24-35.72.24 0 0-10.32-33.96-13.68-45.32-5-16.8-1.16-22.44 16.4-36.28 0 0 23.2-18.36 30.96-24.4Zm-325.36 19.76c4.88-16.88 23.92-16.92 43.84-13.64 12.32 2 49.12 8.4 49.12 8.4 27.84 4.76 35.44 8.68 40.08 30.36 3.12 14.64 12.2 58.56 12.2 58.56 3.12 14.16-7.2 26.44-39.8 21.32-24.92-3.92-89.28-14.8-89.28-14.8-29.68-6-36.64-19.88-32.6-32.96 5.52-17.88 16.44-57.24 16.44-57.24Zm520.44 127.32c-19.92-3.28-38.96-3.24-43.84 13.64 0 0-10.92 39.36-16.44 57.24-4.04 13.08 2.92 26.96 32.6 32.96 0 0 64.36 10.88 89.28 14.8 32.6 5.12 42.92-7.16 39.8-21.32 0 0-9.08-43.92-12.2-58.56-4.64-21.68-12.24-25.6-40.08-30.36 0 0-36.84-6.4-49.12-8.4Zm-587.8-254.64c.12 17.56-18.12 22.96-38.16 25.48a5694.02 5694.02 0 0 1-49.48 5.84c-28.04 3.32-36.48 1.72-47.04-17.76-7.16-13.16-28.28-52.72-28.28-52.72-7.04-12.68-.56-27.4 32.12-31.72 25-3.32 89.8-11.08 89.8-11.08 30.2-2.64 40.76 8.72 40.6 22.4-.24 18.72.44 59.56.44 59.56Zm-122.28 292.32c-15.88 2.68-30.92 3.28-34.12-7.2 0 0-7.16-24.48-10.84-35.56-2.68-8.12 3.32-17.08 27-21.84 0 0 51.28-8.92 71.12-12.2 25.96-4.28 33.64 3.16 30.64 12.16 0 0-8.84 28-11.84 37.32-4.48 13.8-10.64 16.52-32.84 20.44.04 0-29.32 5.2-39.12 6.88Zm-34.76 225.88c-1.6 10.84 12.28 16.76 27.76 21.12 9.56 2.68 38.32 10.56 38.32 10.56 21.72 5.96 28.48 6.16 38.44-4.4 6.72-7.12 26.68-28.64 26.68-28.64 6.6-6.84 2.8-16.84-22.48-24.12-19.32-5.52-69.48-19.44-69.48-19.44-23.44-5.84-32.72-.32-33.76 8.16-1.44 11.6-5.48 36.76-5.48 36.76Zm93.72-207.36c-27.84-4.56-54.48-4.48-61.24 19.08 0 0-15.24 55.04-22.96 80.08-5.64 18.28 4.08 37.68 45.56 46.08 0 0 89.92 15.2 124.76 20.68 45.56 7.12 60-10.04 55.6-29.84 0 0-12.68-61.44-17.04-81.88-6.44-30.28-17.12-35.8-56.04-42.44 0-.04-51.48-8.96-68.64-11.76Zm616.52-204.64c7.08-24.56 34.84-24.64 63.84-19.88 14.56 2.41 52.71 8.99 66.52 11.37h.01l.05.01 5.02.86c40.56 6.88 51.68 12.64 58.4 44.2 4.52 21.32 17.76 85.32 17.76 85.32 4.56 20.64-10.48 38.52-57.96 31.08-36.32-5.68-130.08-21.52-130.08-21.52-43.24-8.8-53.36-29-47.48-48.04 8.04-26.08 23.92-83.4 23.92-83.4Zm-599.72-59.16c26.92-5 52.84-5.6 60.44 16.36 0 0 17.16 51.24 25.72 74.52 6.24 17-2.36 35.44-42.44 44.4 0 0-86.92 16.52-120.6 22.52-44.04 7.88-58.84-7.88-55.4-26.56 0 0 9.76-57.96 13.16-77.24 5-28.6 15.16-34.04 52.76-41.24 0 0 49.76-9.68 66.36-12.76Zm453.08 314.56c17.52 23.44 52.88 1.08 52.88 1.08l43.76-32.28c35.32-22.36 23.6-49.96 23.6-49.96l-21.64-82.76c-1.92-7.4-6.48-13.48-6.48-13.48-12.96-17.36-48.32 5-48.32 5l-81.96 51.84c-35.36 22.36-17.8 45.8-17.8 45.8l55.96 74.76Zm-194.4-246.48s-48.44-20.8-42.12-54.12l20.16-106.4s6.32-33.36 54.76-12.56l112.32 48.2s48.44 20.8 43.76 45.44c0 0-1.64 8.68-6.56 15.56l-55.12 77.08s-14.72 30.28-63.12 9.48l-64.08-22.68Zm-61.32 490.88c15.76-26.28-19.48-55.44-19.48-55.44l-48.04-34.56c-35.2-29.16-57.24-7.52-57.24-7.52l-71.28 50.84c-6.36 4.56-10.48 11.4-10.48 11.4-11.68 19.48 23.56 48.64 23.56 48.64l81.68 67.64c35.24 29.16 51 2.88 51 2.88l50.28-83.88Zm582.88-22.32s-57.24-11.12-61.32-46.56l-13-113.16s-4.08-35.48 53.16-24.36l132.72 25.76s57.24 11.12 60.24 37.32c0 0 1.04 9.24-1.88 17.32l-32.88 90.48s-5.68 34.08-62.92 22.96l-74.12-9.76Zm-291.04-173.52c6.72-33.28 59.4-34.28 59.4-34.28l67.88 3.16c52.72-.96 54.92 32.6 54.92 32.6l22 92.16c1.96 8.24.2 16.88.2 16.88-5 24.6-57.68 25.6-57.68 25.6l-122.2 2.32c-52.68 1-45.96-32.28-45.96-32.28l21.44-106.16Zm-233.84 188.36s-48.44-20.8-42.12-54.12l20.16-106.4s6.32-33.36 54.76-12.56l112.32 48.2s48.44 20.8 43.76 45.44c0 0-1.64 8.68-6.56 15.56l-55.12 77.08s-14.72 30.28-63.12 9.48l-64.08-22.68Zm568.68-370.68c7.52 40.4 66.52 35 66.52 35l75.96-12.52c58.96-5.4 61.44-47.32 61.44-47.32l24.6-117.08c2.2-10.44.24-20.96.24-20.96-5.56-29.88-64.56-24.48-64.56-24.48L4391 3760.8c-58.96 5.44-51.44 45.84-51.44 45.84l24.04 128.96Zm-128.96 340.04s66.48 2.24 81.36 37.08l47.52 111.08s14.92 34.84-51.56 32.56l-154.16-5.2s-66.48-2.24-77.52-28c0 0-3.88-9.08-3-17.6l9.8-95.52s-3.72-34.92 62.76-32.68l84.8-1.72ZM3723.6 4112.6s-34.68 12.68-45.64-10.56l-34.92-74.08s-10.96-23.24 23.76-35.88l80.48-29.36s34.68-12.68 42.8 4.52c0 0 2.84 6.04 3.16 12.72l3.72 74.64s5.16 25.72-29.56 38.4l-43.8 19.6Zm740.32-16.88c-.88 24.52-45.28 20.76-45.28 20.76l-57.84-8.16c-44.4-3.76-51.12-29.28-51.12-29.28l-31.88-71.4c-2.84-6.36-2.6-12.76-2.6-12.76.68-18.16 45.08-14.4 45.08-14.4l102.96 8.72c44.4 3.76 43.52 28.28 43.52 28.28l-2.84 78.24Zm-431.08-393.12s16.36-33.12 40.32-23.88l76.4 29.48s23.96 9.24 7.6 42.36l-37.92 76.8s-16.36 33.12-34.08 26.28c0 0-6.24-2.4-11.08-7l-54.24-51.44s-21.48-15.04-5.12-48.16l18.12-44.44Zm-407.36-36.6c-25.2 4.88-21.48 41.64-21.48 41.64l8.2 47.28c3.92 33.64 29.92 38.08 29.92 38.08l73.28 14.8c6.56 1.32 13.12.04 13.12.04 18.64-3.6 14.92-40.36 14.92-40.36l-8.64-85.2c-3.72-36.76-28.92-31.88-28.92-31.88l-80.4 15.6Zm236.68 326.32s24.84-14.44 35.52-.72l33.96 43.84s10.64 13.72-14.2 28.2l-57.64 33.52s-24.84 14.44-32.72 4.28c0 0-2.76-3.56-3.72-8l-10.52-49.56s-6.56-16.4 18.32-30.88l31-20.68Zm46.48-29.4c19.32-3.8 16.4-31.96 16.4-31.96l-6.48-36.2c-2.92-28.2-23-29.16-23-29.16l-56.2-11.2c-5-1-10.04 0-10.04 0-14.28 2.8-11.36 30.96-11.36 30.96l6.8 65.32c2.92 28.16 22.24 24.36 22.24 24.36l61.64-12.12Zm-59.8 436.08s-2.96 25.48-23.24 24.16l-64.68-4.16s-20.28-1.28-17.28-26.76l6.92-59.08s3-25.48 17.96-24.52c0 0 5.28.32 10.12 2.44l54.32 23.32s20.04 5.68 17.08 31.16l-1.2 33.44Zm201.28-18.2c19.68.2 22.48-28 22.48-28l1-36.76c2.8-28.2-16.68-33.2-16.68-33.2l-52.8-22.28c-4.72-2-9.84-2.04-9.84-2.04-14.56-.16-17.36 28.04-17.36 28.04l-6.48 65.36c-2.8 28.2 16.88 28.36 16.88 28.36l62.8.52Zm-379.44-205.24s-6.64 23.32 7.72 29.88l45.72 20.92s14.32 6.56 20.96-16.76l15.4-54.08s6.64-23.32-3.96-28.16c0 0-3.72-1.72-7.76-1.72l-45.16-.28s-15.68-2.64-22.32 20.68l-10.6 29.52Zm288.28 231.36c-1.8 15.68-26.04 16.56-26.04 16.56l-31.32-.96c-24.24.88-26.56-14.84-26.56-14.84l-13.68-43.04c-1.24-3.84-.76-7.92-.76-7.92 1.32-11.6 25.56-12.48 25.56-12.48l56.2-2.04c24.2-.88 22.4 14.76 22.4 14.76l-5.8 49.96Zm-312.56-438.24s10.8-21.72-2.12-30.8l-41.16-28.92s-12.88-9.08-23.68 12.64l-25 50.36s-10.8 21.72-1.24 28.44c0 0 3.36 2.36 7.32 3.12l44.36 8.52s14.92 5.48 25.72-16.24l15.8-27.12Z" fill="currentColor"/>
</svg>

<svg viewBox="0 0 8000 8000" fill="none"
  xmlns="http://www.w3.org/2000/svg">
  <path fill-rule="evenodd" clip-rule="evenodd" d="M8000 0H0V8000H8000V0ZM4199.28 3575.28C4163.4 3585 4163.92 3644.04 4163.92 3644.04L4169.4 3719.76C4169.92 3778.8 4206.44 3779.04 4206.44 3779.04L4307.12 3797.48C4316.12 3799.12 4325.48 3796.6 4325.48 3796.6C4352.04 3789.4 4351.52 3730.36 4351.52 3730.36L4350.28 3593.48C4349.76 3534.44 4313.84 3544.2 4313.84 3544.2L4199.28 3575.28ZM4032.92 3645.32C4036.64 3631.96 4023.8 3624.04 4009.04 3617.96C4004.14 3615.96 3993.94 3611.86 3985.55 3608.49L3985.53 3608.48L3985.52 3608.48L3985.48 3608.46C3978.28 3605.57 3972.44 3603.22 3972.44 3603.2C3951.72 3594.88 3944.92 3594.36 3932.84 3607.04C3924.68 3615.6 3900.32 3641.44 3900.32 3641.44C3892.32 3649.68 3894.2 3662.24 3918.28 3672.32C3936.72 3680.04 3984.6 3699.4 3984.6 3699.4C4007.12 3707.68 4017.52 3701.2 4020.24 3690.72C4023.96 3676.36 4032.92 3645.32 4032.92 3645.32ZM4012.12 4118.72C4015.84 4105.36 4003 4097.44 3988.24 4091.36C3983.34 4089.36 3973.13 4085.26 3964.74 4081.89L3964.72 4081.88L3964.64 4081.85L3964.54 4081.81L3964.46 4081.78L3964.35 4081.73C3957.31 4078.9 3951.64 4076.62 3951.64 4076.6C3930.92 4068.28 3924.12 4067.76 3912.04 4080.44C3903.88 4089 3879.52 4114.84 3879.52 4114.84C3871.52 4123.08 3873.4 4135.64 3897.48 4145.72C3915.92 4153.44 3963.8 4172.8 3963.8 4172.8C3986.32 4181.08 3996.72 4174.6 3999.44 4164.12C4003.16 4149.76 4012.12 4118.72 4012.12 4118.72ZM3978.8 3815.32C3991.4 3805.52 4004.68 3798.32 4014.4 3808.2C4014.4 3808.2 4036.88 3831.44 4047.48 3841.76C4055.24 3849.32 4055.64 3861.6 4037.28 3877C4037.28 3877 3996.68 3908.92 3980.84 3921.08C3960.12 3936.96 3948.28 3932.32 3945.12 3921.32C3945.12 3921.32 3934.8 3887.36 3931.44 3876C3926.44 3859.2 3930.28 3853.56 3947.84 3839.72C3947.84 3839.72 3971.04 3821.36 3978.8 3815.32ZM3653.44 3835.08C3658.32 3818.2 3677.36 3818.16 3697.28 3821.44C3709.6 3823.44 3746.4 3829.84 3746.4 3829.84C3774.24 3834.6 3781.84 3838.52 3786.48 3860.2C3789.6 3874.84 3798.68 3918.76 3798.68 3918.76C3801.8 3932.92 3791.48 3945.2 3758.88 3940.08C3733.96 3936.16 3669.6 3925.28 3669.6 3925.28C3639.92 3919.28 3632.96 3905.4 3637 3892.32C3642.52 3874.44 3653.44 3835.08 3653.44 3835.08ZM4173.88 3962.4C4153.96 3959.12 4134.92 3959.16 4130.04 3976.04C4130.04 3976.04 4119.12 4015.4 4113.6 4033.28C4109.56 4046.36 4116.52 4060.24 4146.2 4066.24C4146.2 4066.24 4210.56 4077.12 4235.48 4081.04C4268.08 4086.16 4278.4 4073.88 4275.28 4059.72C4275.28 4059.72 4266.2 4015.8 4263.08 4001.16C4258.44 3979.48 4250.84 3975.56 4223 3970.8C4223 3970.8 4186.16 3964.4 4173.88 3962.4ZM3586.08 3707.76C3586.2 3725.32 3567.96 3730.72 3547.92 3733.24C3535.56 3734.8 3498.44 3739.12 3498.44 3739.08C3470.4 3742.4 3461.96 3740.8 3451.4 3721.32C3444.24 3708.16 3423.12 3668.6 3423.12 3668.6C3416.08 3655.92 3422.56 3641.2 3455.24 3636.88C3480.24 3633.56 3545.04 3625.8 3545.04 3625.8C3575.24 3623.16 3585.8 3634.52 3585.64 3648.2C3585.4 3666.92 3586.08 3707.76 3586.08 3707.76ZM3463.8 4000.08C3447.92 4002.76 3432.88 4003.36 3429.68 3992.88C3429.68 3992.88 3422.52 3968.4 3418.84 3957.32C3416.16 3949.2 3422.16 3940.24 3445.84 3935.48C3445.84 3935.48 3497.12 3926.56 3516.96 3923.28C3542.92 3919 3550.6 3926.44 3547.6 3935.44C3547.6 3935.44 3538.76 3963.44 3535.76 3972.76C3531.28 3986.56 3525.12 3989.28 3502.92 3993.2C3502.96 3993.2 3473.6 3998.4 3463.8 4000.08ZM3429.04 4225.96C3427.44 4236.8 3441.32 4242.72 3456.8 4247.08C3466.36 4249.76 3495.12 4257.64 3495.12 4257.64C3516.84 4263.6 3523.6 4263.8 3533.56 4253.24C3540.28 4246.12 3560.24 4224.6 3560.24 4224.6C3566.84 4217.76 3563.04 4207.76 3537.76 4200.48C3518.44 4194.96 3468.28 4181.04 3468.28 4181.04C3444.84 4175.2 3435.56 4180.72 3434.52 4189.2C3433.08 4200.8 3429.04 4225.96 3429.04 4225.96ZM3522.76 4018.6C3494.92 4014.04 3468.28 4014.12 3461.52 4037.68C3461.52 4037.68 3446.28 4092.72 3438.56 4117.76C3432.92 4136.04 3442.64 4155.44 3484.12 4163.84C3484.12 4163.84 3574.04 4179.04 3608.88 4184.52C3654.44 4191.64 3668.88 4174.48 3664.48 4154.68C3664.48 4154.68 3651.8 4093.24 3647.44 4072.8C3641 4042.52 3630.32 4037 3591.4 4030.36C3591.4 4030.32 3539.92 4021.4 3522.76 4018.6ZM4139.28 3813.96C4146.36 3789.4 4174.12 3789.32 4203.12 3794.08C4217.68 3796.49 4255.83 3803.07 4269.64 3805.45L4269.65 3805.45L4269.7 3805.46C4272.84 3806 4274.71 3806.32 4274.72 3806.32C4315.28 3813.2 4326.4 3818.96 4333.12 3850.52C4337.64 3871.84 4350.88 3935.84 4350.88 3935.84C4355.44 3956.48 4340.4 3974.36 4292.92 3966.92C4256.6 3961.24 4162.84 3945.4 4162.84 3945.4C4119.6 3936.6 4109.48 3916.4 4115.36 3897.36C4123.4 3871.28 4139.28 3813.96 4139.28 3813.96ZM3539.56 3754.8C3566.48 3749.8 3592.4 3749.2 3600 3771.16C3600 3771.16 3617.16 3822.4 3625.72 3845.68C3631.96 3862.68 3623.36 3881.12 3583.28 3890.08C3583.28 3890.08 3496.36 3906.6 3462.68 3912.6C3418.64 3920.48 3403.84 3904.72 3407.28 3886.04C3407.28 3886.04 3417.04 3828.08 3420.44 3808.8C3425.44 3780.2 3435.6 3774.76 3473.2 3767.56C3473.2 3767.56 3522.96 3757.88 3539.56 3754.8ZM3992.64 4069.36C4010.16 4092.8 4045.52 4070.44 4045.52 4070.44L4089.28 4038.16C4124.6 4015.8 4112.88 3988.2 4112.88 3988.2L4091.24 3905.44C4089.32 3898.04 4084.76 3891.96 4084.76 3891.96C4071.8 3874.6 4036.44 3896.96 4036.44 3896.96L3954.48 3948.8C3919.12 3971.16 3936.68 3994.6 3936.68 3994.6L3992.64 4069.36ZM3798.24 3822.88C3798.24 3822.88 3749.8 3802.08 3756.12 3768.76L3776.28 3662.36C3776.28 3662.36 3782.6 3629 3831.04 3649.8L3943.36 3698C3943.36 3698 3991.8 3718.8 3987.12 3743.44C3987.12 3743.44 3985.48 3752.12 3980.56 3759L3925.44 3836.08C3925.44 3836.08 3910.72 3866.36 3862.32 3845.56L3798.24 3822.88ZM3736.92 4313.76C3752.68 4287.48 3717.44 4258.32 3717.44 4258.32L3669.4 4223.76C3634.2 4194.6 3612.16 4216.24 3612.16 4216.24L3540.88 4267.08C3534.52 4271.64 3530.4 4278.48 3530.4 4278.48C3518.72 4297.96 3553.96 4327.12 3553.96 4327.12L3635.64 4394.76C3670.88 4423.92 3686.64 4397.64 3686.64 4397.64L3736.92 4313.76ZM4319.8 4291.44C4319.8 4291.44 4262.56 4280.32 4258.48 4244.88L4245.48 4131.72C4245.48 4131.72 4241.4 4096.24 4298.64 4107.36L4431.36 4133.12C4431.36 4133.12 4488.6 4144.24 4491.6 4170.44C4491.6 4170.44 4492.64 4179.68 4489.72 4187.76L4456.84 4278.24C4456.84 4278.24 4451.16 4312.32 4393.92 4301.2L4319.8 4291.44ZM4028.76 4117.92C4035.48 4084.64 4088.16 4083.64 4088.16 4083.64L4156.04 4086.8C4208.76 4085.84 4210.96 4119.4 4210.96 4119.4L4232.96 4211.56C4234.92 4219.8 4233.16 4228.44 4233.16 4228.44C4228.16 4253.04 4175.48 4254.04 4175.48 4254.04L4053.28 4256.36C4000.6 4257.36 4007.32 4224.08 4007.32 4224.08L4028.76 4117.92ZM3794.92 4306.28C3794.92 4306.28 3746.48 4285.48 3752.8 4252.16L3772.96 4145.76C3772.96 4145.76 3779.28 4112.4 3827.72 4133.2L3940.04 4181.4C3940.04 4181.4 3988.48 4202.2 3983.8 4226.84C3983.8 4226.84 3982.16 4235.52 3977.24 4242.4L3922.12 4319.48C3922.12 4319.48 3907.4 4349.76 3859 4328.96L3794.92 4306.28ZM4363.6 3935.6C4371.12 3976 4430.12 3970.6 4430.12 3970.6L4506.08 3958.08C4565.04 3952.68 4567.52 3910.76 4567.52 3910.76L4592.12 3793.68C4594.32 3783.24 4592.36 3772.72 4592.36 3772.72C4586.8 3742.84 4527.8 3748.24 4527.8 3748.24L4391 3760.8C4332.04 3766.24 4339.56 3806.64 4339.56 3806.64L4363.6 3935.6ZM4234.64 4275.64C4234.64 4275.64 4301.12 4277.88 4316 4312.72L4363.52 4423.8C4363.52 4423.8 4378.44 4458.64 4311.96 4456.36L4157.8 4451.16C4157.8 4451.16 4091.32 4448.92 4080.28 4423.16C4080.28 4423.16 4076.4 4414.08 4077.28 4405.56L4087.08 4310.04C4087.08 4310.04 4083.36 4275.12 4149.84 4277.36L4234.64 4275.64ZM3723.6 4112.6C3723.6 4112.6 3688.92 4125.28 3677.96 4102.04L3643.04 4027.96C3643.04 4027.96 3632.08 4004.72 3666.8 3992.08L3747.28 3962.72C3747.28 3962.72 3781.96 3950.04 3790.08 3967.24C3790.08 3967.24 3792.92 3973.28 3793.24 3979.96L3796.96 4054.6C3796.96 4054.6 3802.12 4080.32 3767.4 4093L3723.6 4112.6ZM4463.92 4095.72C4463.04 4120.24 4418.64 4116.48 4418.64 4116.48L4360.8 4108.32C4316.4 4104.56 4309.68 4079.04 4309.68 4079.04L4277.8 4007.64C4274.96 4001.28 4275.2 3994.88 4275.2 3994.88C4275.88 3976.72 4320.28 3980.48 4320.28 3980.48L4423.24 3989.2C4467.64 3992.96 4466.76 4017.48 4466.76 4017.48L4463.92 4095.72ZM4032.84 3702.6C4032.84 3702.6 4049.2 3669.48 4073.16 3678.72L4149.56 3708.2C4149.56 3708.2 4173.52 3717.44 4157.16 3750.56L4119.24 3827.36C4119.24 3827.36 4102.88 3860.48 4085.16 3853.64C4085.16 3853.64 4078.92 3851.24 4074.08 3846.64L4019.84 3795.2C4019.84 3795.2 3998.36 3780.16 4014.72 3747.04L4032.84 3702.6ZM3625.48 3666C3600.28 3670.88 3604 3707.64 3604 3707.64L3612.2 3754.92C3616.12 3788.56 3642.12 3793 3642.12 3793L3715.4 3807.8C3721.96 3809.12 3728.52 3807.84 3728.52 3807.84C3747.16 3804.24 3743.44 3767.48 3743.44 3767.48L3734.8 3682.28C3731.08 3645.52 3705.88 3650.4 3705.88 3650.4L3625.48 3666ZM3862.16 3992.32C3862.16 3992.32 3887 3977.88 3897.68 3991.6L3931.64 4035.44C3931.64 4035.44 3942.28 4049.16 3917.44 4063.64L3859.8 4097.16C3859.8 4097.16 3834.96 4111.6 3827.08 4101.44C3827.08 4101.44 3824.32 4097.88 3823.36 4093.44L3812.84 4043.88C3812.84 4043.88 3806.28 4027.48 3831.16 4013L3862.16 3992.32ZM3908.64 3962.92C3927.96 3959.12 3925.04 3930.96 3925.04 3930.96L3918.56 3894.76C3915.64 3866.56 3895.56 3865.6 3895.56 3865.6L3839.36 3854.4C3834.36 3853.4 3829.32 3854.4 3829.32 3854.4C3815.04 3857.2 3817.96 3885.36 3817.96 3885.36L3824.76 3950.68C3827.68 3978.84 3847 3975.04 3847 3975.04L3908.64 3962.92ZM3848.84 4399C3848.84 4399 3845.88 4424.48 3825.6 4423.16L3760.92 4419C3760.92 4419 3740.64 4417.72 3743.64 4392.24L3750.56 4333.16C3750.56 4333.16 3753.56 4307.68 3768.52 4308.64C3768.52 4308.64 3773.8 4308.96 3778.64 4311.08L3832.96 4334.4C3832.96 4334.4 3853 4340.08 3850.04 4365.56L3848.84 4399ZM4050.12 4380.8C4069.8 4381 4072.6 4352.8 4072.6 4352.8L4073.6 4316.04C4076.4 4287.84 4056.92 4282.84 4056.92 4282.84L4004.12 4260.56C3999.4 4258.56 3994.28 4258.52 3994.28 4258.52C3979.72 4258.36 3976.92 4286.56 3976.92 4286.56L3970.44 4351.92C3967.64 4380.12 3987.32 4380.28 3987.32 4380.28L4050.12 4380.8ZM3670.68 4175.56C3670.68 4175.56 3664.04 4198.88 3678.4 4205.44L3724.12 4226.36C3724.12 4226.36 3738.44 4232.92 3745.08 4209.6L3760.48 4155.52C3760.48 4155.52 3767.12 4132.2 3756.52 4127.36C3756.52 4127.36 3752.8 4125.64 3748.76 4125.64L3703.6 4125.36C3703.6 4125.36 3687.92 4122.72 3681.28 4146.04L3670.68 4175.56ZM3958.96 4406.92C3957.16 4422.6 3932.92 4423.48 3932.92 4423.48L3901.6 4422.52C3877.36 4423.4 3875.04 4407.68 3875.04 4407.68L3861.36 4364.64C3860.12 4360.8 3860.6 4356.72 3860.6 4356.72C3861.92 4345.12 3886.16 4344.24 3886.16 4344.24L3942.36 4342.2C3966.56 4341.32 3964.76 4356.96 3964.76 4356.96L3958.96 4406.92ZM3646.4 3968.68C3646.4 3968.68 3657.2 3946.96 3644.28 3937.88L3603.12 3908.96C3603.12 3908.96 3590.24 3899.88 3579.44 3921.6L3554.44 3971.96C3554.44 3971.96 3543.64 3993.68 3553.2 4000.4C3553.2 4000.4 3556.56 4002.76 3560.52 4003.52L3604.88 4012.04C3604.88 4012.04 3619.8 4017.52 3630.6 3995.8L3646.4 3968.68Z" fill="black"/>
</svg>
